src/assets/icons/remotes/dropbox.svg

<svg width="24" height="24" viewBox="0 0 24 24" fill="currentColor" xmlns="http://www.w3.org/2000/svg">
    <path
        d="M12.015 6.76086L7.06501 9.92211L12.015 13.0834L7.06501 16.2446L2.10001 13.0534L7.06126 9.89211L2.10001 6.76086L7.06126 3.59961L12.015 6.76086ZM7.03501 17.2384L11.985 14.0771L16.935 17.2384L11.985 20.3996L7.03501 17.2384ZM12.015 13.0534L16.965 9.89211L12.015 6.75711L16.9388 3.59961L21.9 6.76086L16.9388 9.92211L21.9 13.0796L16.9388 16.2409L12.015 13.0534Z" />
</svg>

<svg xmlns="http://www.w3.org/2000/svg" width="24" height="24" fill="currentColor" viewBox="0 0 24 24"><path d="m12.015 6.76-4.95 3.162 4.95 3.161-4.95 3.162L2.1 13.053l4.961-3.16L2.1 6.76 7.061 3.6zm-4.98 10.478 4.95-3.16 4.95 3.16-4.95 3.162zm4.98-4.185 4.95-3.16-4.95-3.136L16.939 3.6 21.9 6.76l-4.961 3.162L21.9 13.08l-4.961 3.16z"/></svg>
